modules/feathericon/icons/shield.svg

<?xml version="1.0" encoding="UTF-8"?>
<svg width="24px" height="24px" viewBox="0 0 24 24" version="1.1" xmlns="http://www.w3.org/2000/svg" xmlns:xlink="http://www.w3.org/1999/xlink">
    <!-- Generator: sketchtool 52.2 (67145) - http://www.bohemiancoding.com/sketch -->
    <title>shield</title>
    <desc>Created with sketchtool.</desc>
    <g id="web-app" stroke="none" stroke-width="1" fill="none" fill-rule="evenodd">
        <g id="shield" fill="#000000" fill-rule="nonzero">
            <path d="M6,16.763932 L12,19.763932 L12,4 L6,4 L6,16.763932 Z M6,2 L18,2 C19.1045695,2 20,2.8954305 20,4 L20,18 L12,22 L4,18 L4,4 C4,2.8954305 4.8954305,2 6,2 Z" id="shape"></path>
        </g>
    </g>
</svg>

<svg width="24" height="24" viewBox="0 0 24 24" xmlns="http://www.w3.org/2000/svg"><path d="M6 16.764l6 3V4H6v12.764zM6 2h12a2 2 0 0 1 2 2v14l-8 4-8-4V4a2 2 0 0 1 2-2z" fill="#000" fill-rule="nonzero"/></svg>
